X:1
T:Hvalite Gospoda c Nebes No. 1
T:Hvalite Gospoda s Nebes No. 1
T:N. Rimski-Korsakov
C:N. Rimski-Korsakov
%%score [ 1 2 3 4 ]
L:1/8
Q:1/4=110
M:2/2
K:F
V:1 treble nm="Soprano"
V:2 treble nm="Alto"
V:3 treble-8 nm="Tenor"
V:4 bass nm="Bass"
V:1
"^Dvelende"!p! F8 | G8 | (A4 G2 A2) | (F4 G2 A2) | B8 |[M:3/2] A4 A4 A4 |[M:2/2] (G8 | F8) | (A8 | %9
w: Hva-||li- * *|te _ _|Gos-|po- da s Ne-|bes,|_|hva-|
 B8) | c8 | G8 | (c4 d4 | _e8) |[M:3/2] _e4 e4 c4 |[M:2/2] (d8 | c8) | (c8 | d4 _e4) | f8 | %20
w: |li-|te|Gos- *||po- da s Ne-|bes,|_|hva-||li-|
 (_e4 c4) | (d4 _e4) | f8 | (_e8 | d4 c2 B2) | c8 | (A6 B2) | c4 c4 | B8 | A8 | G8 | !fermata!F8 || %32
w: te _|E- *|go|v visj-||nih,|hva- *|li- te|E-|go|v visj-|nih.|
!p! F8 | G8 | A4 G2 A2 | F4 G2 A2 | B8 | A4 A4 |[M:3/2] G8 G4 |[M:2/2] F8 | A8 | B8 | c8 | G4 G4 | %44
w: Al-|li-|lu- * *|i- ja, _|al-|* li-|lu- i-|ja,|al-|li-|lu-|i- ja,|
 (c4 d4 | _e4) c4 |[M:3/2] d8 d4 |[M:2/2] c8 | c8 | d4 _e4 | f8 | _e4 c4 | d4 _e4 | (f8 | _e8 | %55
w: al- *|* li-|lu- i-|ja,|al-|li- *|lu-|i- ja,|al- li-|lu-||
 d8 | c4) B4 | c8 | A4 A2 B2 | c4 c2 c2 | B8 | A8 |[M:3/2] G8 G4 |[M:2/2] !fermata!F8 |] %64
w: |* i-|ja,|al- li- *|lu- i- ja,|al-|li-|lu- i-|ja.|
V:2
 z8 | z8 | z8 | z8 |!p! D4 E4 |[M:3/2] (F12- |[M:2/2] F4 E4) | F8 | (C8 | F8) | (F4 _E2 D2) | _E8 | %12
w: ||||Hva- *|li-||te,|hva-||li- * *|te|
 (_E4 F4 | G4 G4) |[M:3/2] G4 G4 F4 |[M:2/2] F8- | F8 | (G8- | G8) | _A8 | G8 | G8 | G8 | (G8 | %24
w: Gos- *||po- da s Ne-|bes,|_|hva-||li-|te|E-|go|v visj-|
 F6 D2) | F8 | z8 | (C8 | D4 G4) | (F8- | F4 E4) | !fermata!F8 || z8 | z8 | z8 | z8 |!p! D4 E4 | %37
w: |nih,||hva-||li-||te.|||||Al- li-|
 F8- |[M:3/2] F8 E4 |[M:2/2] F8 | C8 | F8 | (F4 _E2 D2) | _E4 E4 | (_E4 F4 | G4) F4 | %46
w: lu-|* i-|ja,|al-|li-|lu- * *|i- ja,|al- *|* li-|
[M:3/2] F8 F4 |[M:2/2] F8 | G8 | G8 | _A8 | G4 G4 | G4 G4 | (G8- | G8 | F8- | F4) D4 | F8 | z8 | %59
w: lu- i-|ja,|al-|li-|lu-|i- ja,|al- li-|lu-|||* i-|ja,||
 C6 C2 | (D4 G4 | F8- |[M:3/2] F8) F4 |[M:2/2] !fermata!F8 |] %64
w: al- li-|lu- *||* i-|ja.|
V:3
 z8 | z8 |!p! F4 G4 | A4 A4 | G8 |[M:3/2] c4 c4 c4 |[M:2/2] (d4 c4- | c8) | F8- | F8 | G8 | c8 | %12
w: ||Hva- *|li- te|Gos-|po- da s Ne-|bes, _|_|hva-||li-|te|
 (G4 B4- | B8) |[M:3/2] B4 B4 A4 |[M:2/2] (B8 | A8) | (c8 | =B4 c4) | c8 | (c4 _e4) | (d4 c4) | %22
w: Gos- *||po- da s Ne-|bes,|_|hva-||li-|te _|E- *|
 c4 =B4 | (c4 G2 A2 | _B4 A2 G2) | A8 | (A6 G2) | F4 E4 | (D4 E4) | (F4 c4) | d4 c4 | %31
w: go _|v visj- * *||nih,|hva- *|li- te|E- *|go _|v visj- *|
 !fermata!c8 || z8 | z8 |!p! F4 G4 | A8 | G4 G4 | c4 c4 |[M:3/2] d8 c4 |[M:2/2] c8 | F8 | F8 | G8 | %43
w: nih.|||Al- li-|lu-|i- ja,|al- li-|lu- i-|ja,|al-|li-|lu-|
 c4 c4 | (G4 B4- | B4) A4 |[M:3/2] B8 B4 |[M:2/2] A8 | c8 | (=B4 c4) | c8 | c4 _e4 | (d4 c4- | %53
w: i- ja,|al- *|* li-|lu- i-|ja,|al-|li- *|lu-|i- ja,|al- *|
 c4) =B4 | c4 G2 A2 | _B4 B4 | A4 G4 | A8 | A4 A2 G2 | F4 E2 E2 | D4 E4 | (F4 c4 |[M:3/2] d8) c4 | %63
w: * li-|lu- i- ja,|al- li-|lu- i-|ja,|al- li- *|lu- i- ja,|al- li-|lu- *|* i-|
[M:2/2] !fermata!c8 |] %64
w: ja.|
V:4
 z8 | z8 |!p! D,8 | D,4 D,4 | G,,8 |[M:3/2] A,,4 A,,4 A,,4 |[M:2/2] (B,,4 C,4) | F,,8 | %8
w: ||Hva-|li- te|Gos-|po- da s Ne-|bes, _|_|
 (F,4 _E,4- | E,4 D,4) | C,8 | C,8 | (C,4 B,,4 | _E,8) |[M:3/2] _E,4 C,4 F,4 |[M:2/2] (B,,4 D,4 | %16
w: hva- *||li-|te|Gos- *||po- da s Ne-|bes, _|
 F,8) | (_E,8 | D,4 C,4) | (F,,4 _A,,4) | C,8 | (=B,,4 C,4) | D,8 | (_E,4 C,4 | D,2 _E,2 F,2 G,2) | %25
w: _|hva-||li- *|te|E- *|go|v visj- *||
 F,8 | z8 | (A,,8- | A,,4 G,,4) | (A,,8 | B,,4 C,4) | !fermata!F,,8 || z8 | z8 |!p! D,4 D,4 | D,8 | %36
w: nih,||hva-||li-||te.|||Al- li-|lu-|
 G,,4 G,,4 | A,,4 A,,4 |[M:3/2] B,,8 C,4 |[M:2/2] F,,8 | (F,4 _E,4- | E,4) D,4 | C,8 | C,4 C,4 | %44
w: i- ja,|al- li-|lu- i-|ja,|al- *|* li-|lu-|i- ja,|
 (C,4 B,,4 | _E,4) F,4 |[M:3/2] B,,8 D,4 |[M:2/2] F,8 | _E,8 | (D,4 C,4) | (F,,4 _A,,4) | C,4 C,4 | %52
w: al- *|* li-|lu- i-|ja,|al-|li- *|lu- *|i- ja,|
 =B,,4 C,4 | (D,8 | _E,4 C,4 | D,6 _E,2 | F,4) G,4 | F,8 | z8 | A,,8- | A,,4 G,,4 | (A,,8 | %62
w: al- li-|lu-|||* i-|ja,||al-|* li-|lu-|
[M:3/2] B,,8) C,4 |[M:2/2] !fermata!F,,8 |] %64
w: * i-|ja.|

